P2
# Created by IrfanView
64 45
255
0 0 0 0 0 0 0 0 0 0 0 0 0 255 0 255 0 
0 0 0 0 0 0 0 255 0 0 255 255 0 255 0 0 
0 0 0 0 0 0 0 0 0 0 0 0 0 0 0 0 
255 0 0 0 0 0 0 0 0 0 0 0 0 0 255 0 0 0 0 0 0 0 0 255 0 0 255 0 255 0 0 0 
0 0 0 0 0 0 0 0 0 0 0 0 0 0 0 0 
0 0 0 0 0 0 0 0 255 0 255 255 255 0 255 0 
255 0 0 0 0 0 0 0 0 0 0 255 0 255 255 0 0 0 0 0 0 0 0 0 0 0 0 0 255 0 255 0 
0 0 0 0 0 0 0 255 0 0 255 0 0 255 255 0 
0 0 0 0 0 0 0 0 0 0 0 0 0 0 0 0 
255 0 0 0 0 0 0 0 0 0 0 0 0 0 255 0 0 0 0 0 0 0 0 255 0 0 0 255 255 0 0 0 
0 0 0 0 0 0 0 0 0 0 0 0 0 0 0 0 
0 0 0 0 0 0 0 0 0 0 0 0 0 0 255 0 
255 0 0 0 0 0 0 0 0 255 0 0 0 0 255 0 0 0 0 0 0 0 0 255 0 0 0 255 0 0 255 0 
0 0 0 0 0 0 0 0 0 0 0 0 0 0 0 0 
0 0 0 0 0 0 0 0 0 0 0 0 0 0 0 255 
255 0 0 0 0 0 0 0 0 0 0 0 0 0 255 0 0 0 0 0 0 0 0 255 0 0 0 0 255 255 0 0 
0 0 0 0 0 0 0 255 0 0 0 0 255 255 0 0 
0 0 0 0 0 0 0 0 0 0 0 0 0 0 255 0 
255 0 0 0 0 0 0 0 0 0 0 0 0 0 255 0 0 0 0 0 0 0 0 0 0 0 0 0 255 0 255 0 
0 0 0 0 0 0 0 255 0 0 0 0 0 255 0 0 
0 0 0 0 0 0 0 0 0 0 255 255 0 0 0 0 
255 0 0 0 0 0 0 0 0 0 0 0 0 0 255 0 0 0 0 0 0 0 0 0 255 255 255 255 255 0 0 0 
0 0 0 0 0 0 0 0 0 0 0 0 0 0 0 0 
0 0 0 0 0 0 0 0 255 0 255 255 0 255 255 0 
255 255 255 255 255 255 255 255 255 255 255 255 255 255 0 0 0 0 0 0 0 0 0 0 255 255 255 255 0 0 0 0 
0 0 0 0 0 0 0 0 255 255 255 255 0 0 0 0 
0 0 0 0 0 0 0 0 0 0 0 0 0 255 0 0 
255 0 0 0 0 0 0 0 0 0 0 0 0 255 0 0 0 0 0 0 0 0 0 0 255 255 255 0 255 0 255 0 
0 0 0 0 0 0 0 0 255 255 255 0 255 0 255 255 
255 255 255 255 255 255 255 255 255 255 255 255 255 255 0 0 
255 0 0 0 0 0 0 0 0 0 0 0 0 0 255 0 0 0 0 0 0 0 0 0 255 255 255 0 0 0 255 0 
0 0 0 0 0 0 0 0 255 255 255 0 0 0 255 0 
0 0 0 0 0 0 0 0 0 0 0 0 0 0 255 0 
255 0 0 0 0 0 0 0 0 0 255 255 0 255 0 0 0 0 0 0 0 0 0 0 255 255 0 255 255 0 0 0 
0 0 0 0 0 0 0 0 0 0 0 0 0 0 0 0 
0 0 0 0 0 0 0 0 0 0 0 0 0 0 255 255 
255 255 255 255 255 255 255 255 255 255 255 255 0 255 0 0 0 0 0 0 0 0 0 0 255 255 0 255 0 0 0 0 
0 0 0 0 0 0 0 0 255 255 0 255 0 0 0 255 
255 255 255 255 255 255 255 255 255 255 255 255 255 255 0 0 
255 0 0 0 0 0 0 0 0 0 0 255 0 255 255 0 0 0 0 0 0 0 0 0 0 0 0 0 255 255 0 0 
0 0 0 0 0 0 0 0 255 255 0 0 255 255 255 0 
0 0 0 0 0 0 0 0 0 255 0 255 255 0 0 0 
255 0 0 0 0 0 0 0 0 0 0 0 0 0 255 0 0 0 0 0 0 0 0 0 255 255 0 0 0 0 0 0 
0 0 0 0 0 0 0 0 0 0 0 0 0 0 0 0 
0 0 0 0 0 0 0 0 0 0 0 0 0 0 0 255 
0 0 0 0 0 0 0 0 0 0 255 0 255 255 0 0 0 0 0 0 0 0 0 0 255 0 255 255 255 0 255 0 
0 0 0 0 0 0 0 0 0 0 0 0 0 0 0 0 
0 0 0 0 0 0 0 0 0 0 0 0 0 0 0 255 
255 0 0 0 0 0 0 0 0 0 0 0 0 0 255 0 0 0 0 0 0 0 0 0 255 0 255 255 0 255 0 0 
0 0 0 0 0 0 0 0 255 0 255 255 0 255 0 255 
255 255 255 255 255 255 255 255 255 255 255 255 255 255 255 0 
255 0 0 0 0 0 0 0 0 0 0 0 0 0 255 0 0 0 0 0 0 0 0 0 0 0 0 0 255 0 255 0 
0 0 0 0 0 0 0 0 255 0 255 0 255 255 0 0 
0 0 0 0 0 0 0 0 255 0 0 0 255 0 0 0 
255 0 0 0 0 0 0 0 0 0 0 0 0 0 255 0 0 0 0 0 0 0 0 0 255 0 255 0 0 0 0 0 
0 0 0 0 0 0 0 0 0 0 0 0 0 0 0 0 
0 0 0 0 0 0 0 0 255 0 255 255 0 255 255 0 
255 255 255 255 255 255 255 255 255 255 255 255 255 255 0 0 0 0 0 0 0 0 0 0 255 0 0 255 255 0 0 0 
0 0 0 0 0 0 0 0 255 0 0 255 255 0 0 0 
0 0 0 0 0 0 0 0 0 0 0 0 0 255 0 0 
255 0 0 0 0 0 0 0 0 0 0 0 0 255 0 0 0 0 0 0 0 0 0 0 255 0 0 255 0 0 255 0 
0 0 0 0 0 0 0 0 255 0 0 255 0 0 255 0 
0 0 0 0 0 0 0 0 0 0 0 0 0 255 0 0 
255 0 0 0 0 0 0 0 0 0 0 0 0 0 255 0 0 0 0 0 0 0 0 0 255 0 0 0 255 0 255 0 
0 0 0 0 0 0 0 0 255 0 0 0 255 0 255 255 
255 255 255 255 255 255 255 255 255 255 255 255 255 255 255 0 
255 0 0 0 0 0 0 0 0 0 0 255 255 255 255 0 0 0 0 0 0 0 0 0 255 0 0 0 0 0 0 0 
0 0 0 0 0 0 0 0 0 0 0 0 0 0 0 0 
0 0 0 0 0 0 0 0 0 0 0 0 0 0 255 255 
255 255 255 255 255 255 255 255 255 255 255 255 0 255 0 0 0 0 0 0 0 0 0 0 0 255 255 255 255 0 0 0 
0 0 0 0 0 0 0 0 0 255 255 255 255 0 0 255 
255 255 255 255 255 255 255 255 255 255 0 0 0 255 255 0 
255 0 0 0 0 0 0 0 0 0 0 0 0 255 255 0 0 0 0 0 0 0 0 0 0 255 255 255 0 255 255 0 
0 0 0 0 0 0 0 0 0 255 255 255 0 255 255 255 
255 255 255 255 255 255 255 255 255 255 255 255 255 255 255 0 
255 0 0 0 0 0 0 0 0 0 0 0 0 0 255 0 0 0 0 0 0 0 0 0 0 255 255 0 255 0 0 0 
0 0 0 0 0 0 0 0 0 0 0 0 0 0 0 0 
0 0 0 0 0 0 0 0 0 0 0 0 0 0 255 255 
255 0 0 0 0 0 0 0 0 0 0 255 0 255 255 0 0 0 0 0 0 0 0 0 0 255 255 0 0 0 0 0 
0 0 0 0 0 0 0 0 0 255 255 0 0 0 0 255 
255 255 255 255 255 255 255 255 255 255 255 255 255 255 0 0 
255 0 0 0 0 0 0 0 0 0 0 0 0 255 255 0 0 0 0 0 0 0 0 0 0 255 0 255 255 255 255 0 
0 0 0 0 0 0 0 0 0 255 0 255 255 255 255 0 
0 0 0 0 0 0 0 0 0 0 0 0 0 0 255 0 
255 0 0 0 0 0 0 0 0 0 0 0 0 0 255 0 0 0 0 0 0 0 0 0 0 255 0 255 0 0 0 0 
0 0 0 0 0 0 0 0 0 0 0 0 0 0 0 0 
0 0 0 0 0 0 0 0 0 0 0 0 0 0 255 255 
255 0 0 0 0 0 0 0 0 0 0 255 0 0 0 0 0 0 0 0 0 0 0 0 0 255 0 0 255 0 0 0 
0 0 0 0 0 0 0 0 0 255 0 0 255 0 0 255 
255 255 255 255 255 255 255 255 255 255 255 0 0 0 255 0 
255 0 0 0 0 0 0 0 0 0 0 0 0 255 255 0 0 0 0 0 0 0 0 0 0 255 0 0 0 0 255 0 
0 0 0 0 0 0 0 0 0 0 0 0 0 0 255 0 
0 0 0 0 0 0 0 0 0 0 0 0 0 0 0 255 
255 0 0 0 0 0 0 0 0 0 0 0 0 0 255 0 0 0 0 0 0 0 0 0 0 0 255 255 255 0 0 0 
0 0 0 0 0 0 0 0 0 0 0 0 0 0 0 0 
0 0 0 0 0 0 0 0 0 0 0 0 0 0 255 255 
255 0 0 0 0 0 0 0 0 0 0 0 0 255 0 0 0 0 0 0 0 0 0 0 0 0 255 255 0 0 255 0 
0 0 0 0 0 0 0 0 0 0 0 0 0 0 0 0 
0 0 0 0 0 0 0 0 0 0 0 0 0 0 255 255 
255 0 0 0 0 0 0 0 0 0 0 0 0 0 255 0 0 0 0 0 0 0 0 0 0 0 0 255 0 0 0 0 
0 0 0 0 0 0 0 0 0 0 255 0 255 255 255 0 
0 0 0 0 0 0 0 255 0 0 0 0 0 0 0 0 
255 0 0 0 0 0 0 0 0 0 0 0 0 0 255 0 0 0 0 0 0 0 0 0 0 0 0 0 255 0 255 0 
0 0 0 0 0 0 0 0 0 0 255 0 0 255 255 0 
0 0 0 0 0 0 0 255 0 0 0 0 0 0 0 0 
255 0 0 0 0 0 0 0 0 0 0 0 0 0 255 0 0 0 0 0 0 0 0 0 0 0 0 0 0 0 0 0 
0 0 0 0 0 0 0 0 0 0 0 0 0 0 0 0 
0 0 0 0 0 0 0 0 0 0 0 255 255 0 255 0 
0 0 0 0 0 0 0 0 0 0 0 0 0 0 255 0 0 0 0 0 0 0 0 0 0 0 0 255 0 255 0 0 
0 0 0 0 0 0 0 0 0 0 0 255 0 255 0 255 
255 255 255 255 255 255 255 255 255 255 255 255 255 255 255 0 
255 0 0 0 0 0 0 0 0 0 0 0 0 0 255 0 0 0 0 0 0 0 0 0 0 0 0 0 255 0 0 0 
0 0 0 0 0 0 0 0 0 0 0 0 0 0 0 0 
0 0 0 0 0 0 0 0 0 0 0 0 0 0 255 255 
255 255 255 255 255 255 255 255 255 0 255 255 0 255 255 0 0 0 0 0 0 0 0 0 0 0 0 0 0 0 0 0 
0 0 0 0 0 0 0 0 0 0 0 0 0 0 0 0 
0 0 0 0 0 0 0 255 0 0 255 255 0 0 0 255 
0 0 0 255 0 255 0 255 255 0 0 255 255 0 255 0 0 0 0 0 0 0 0 0 0 255 0 255 0 255 255 0 
0 0 0 0 0 0 0 0 0 255 0 255 0 255 255 0 
0 0 0 0 0 0 0 0 0 255 0 255 0 255 255 0 
0 0 0 0 0 0 0 0 0 255 0 255 0 255 255 0 0 0 0 0 0 0 0 0 0 255 0 255 0 255 255 0 
0 0 0 0 0 0 0 0 0 255 0 255 0 255 255 0 
0 0 0 0 0 0 0 0 255 0 255 255 0 255 255 0 
0 0 0 0 0 0 0 0 0 255 255 255 255 255 0 0 0 0 0 0 0 0 0 0 0 255 0 255 0 255 255 0 
0 0 0 0 0 0 0 0 0 255 0 255 0 255 255 0 
0 0 0 0 0 0 0 0 0 255 0 255 0 255 255 0 
0 0 0 0 0 0 0 0 0 255 0 255 0 255 255 0 0 0 0 0 0 0 0 0 0 255 0 255 0 255 255 0 
0 0 0 0 0 0 0 0 0 255 0 255 0 255 255 0 
0 0 0 0 0 0 0 0 0 255 0 255 0 255 255 0 
0 0 0 0 0 0 0 0 0 255 255 255 255 0 0 0 0 0 0 0 0 0 0 0 0 255 0 255 255 0 255 0 
0 0 0 0 0 0 0 0 255 0 255 255 255 0 255 0 
0 0 0 0 0 0 0 0 0 255 255 255 255 255 0 0 
0 0 0 0 0 0 0 0 255 0 255 255 0 255 255 0 0 0 0 0 0 0 0 0 255 0 255 255 255 0 255 0 
0 0 0 0 0 0 0 0 0 0 0 0 0 0 0 0 
0 0 0 0 0 0 0 0 0 0 0 0 0 0 0 0 
0 0 0 0 0 0 0 0 0 0 0 0 0 0 0 